core/screens/pimnet_level/graphics/panel.svg

<svg width="64" xmlns="http://www.w3.org/2000/svg" height="64" fill="none"><g class="fills"><rect rx="0" ry="0" width="64" height="64" transform="matrix(1.000000, 0.000000, 0.000000, 1.000000, 0.000000, 0.000000)" class="frame-background"/></g><g style="fill: rgb(0, 0, 0);" class="frame-children"><path d="M6.000,58.000L6.000,6.000L58.000,6.000L58.000,58.000" style="display: inline; fill: rgb(205, 206, 217); fill-opacity: 1;" class="fills"/><path d="M62.000,58.000C62.000,61.000,61.000,62.000,58.000,62.000L6.000,62.000C3.000,62.000,2.000,61.000,2.000,58.000L2.000,6.000C2.000,3.000,3.000,2.000,6.000,2.000L58.000,2.000C61.000,2.000,62.000,3.000,62.000,6.000ZM4.000,6.000L4.000,58.000C4.000,59.500,4.500,60.000,6.000,60.000L27.450,60.000L28.000,60.000L58.000,60.000C59.500,60.000,60.000,59.500,60.000,58.000L60.000,6.000C60.000,4.500,59.500,4.000,58.000,4.000L6.000,4.000C4.500,4.000,4.000,4.500,4.000,6.000ZZ" style="display: inline; fill: rgb(153, 189, 204); fill-opacity: 1;" class="fills"/><path d="M58.000,4.000C59.500,4.000,60.000,4.500,60.000,6.000L60.000,58.000C60.000,59.500,59.500,60.000,58.000,60.000L6.000,60.000C4.500,60.000,4.000,59.500,4.000,58.000L4.000,6.000C4.000,4.500,4.500,4.000,6.000,4.000ZM6.000,6.000L6.000,58.000L58.000,58.000L58.000,6.000L6.000,6.000Z" style="display: inline; fill: rgb(125, 154, 166); fill-opacity: 1;" class="fills"/><path d="M0.000,58.250L0.000,6.000C0.000,2.000,2.000,0.000,6.000,0.000L58.000,0.000C62.000,0.000,64.000,2.000,64.000,6.000L64.000,58.000C64.000,62.000,62.000,64.000,58.000,64.000L6.000,64.000C2.000,64.000,0.000,62.000,0.000,58.250ZM58.000,2.000L6.000,2.000C3.000,2.000,2.000,3.000,2.000,6.000L2.000,58.000C2.000,61.000,3.000,62.000,6.000,62.000L58.000,62.000C61.000,62.000,62.000,61.000,62.000,58.000L62.000,6.000C62.000,3.000,61.000,2.000,58.000,2.000ZZ" style="display: inline; fill: rgb(81, 104, 115); fill-opacity: 1;" class="fills"/><path d="M6.000,6.000L58.000,6.000L58.000,58.000L6.000,58.000L6.000,6.000ZM57.000,57.000L57.000,7.000L7.000,7.000L7.000,57.000Z" style="fill: rgb(255, 255, 255);" class="fills"/></g></svg>

<?xml version="1.0" encoding="UTF-8" standalone="no"?>
<svg
   width="64"
   height="64"
   version="1.1"
   id="svg5"
   sodipodi:docname="button_square_border_edit6.svg"
   inkscape:version="1.4 (e7c3feb, 2024-10-09)"
   xmlns:inkscape="http://www.inkscape.org/namespaces/inkscape"
   xmlns:sodipodi="http://sodipodi.sourceforge.net/DTD/sodipodi-0.dtd"
   xmlns="http://www.w3.org/2000/svg"
   xmlns:svg="http://www.w3.org/2000/svg">
  <sodipodi:namedview
     id="namedview5"
     pagecolor="#ffffff"
     bordercolor="#666666"
     borderopacity="1.0"
     inkscape:showpageshadow="2"
     inkscape:pageopacity="0.0"
     inkscape:pagecheckerboard="0"
     inkscape:deskcolor="#d1d1d1"
     inkscape:zoom="12.875"
     inkscape:cx="31.728155"
     inkscape:cy="37.359223"
     inkscape:window-width="1920"
     inkscape:window-height="1027"
     inkscape:window-x="0"
     inkscape:window-y="0"
     inkscape:window-maximized="1"
     inkscape:current-layer="g5"
     showgrid="true">
    <inkscape:grid
       id="grid5"
       units="px"
       originx="0"
       originy="0"
       spacingx="0.5"
       spacingy="0.5"
       empcolor="#0099e5"
       empopacity="0.30196078"
       color="#0099e5"
       opacity="0.14901961"
       empspacing="5"
       enabled="true"
       visible="true" />
  </sodipodi:namedview>
  <defs
     id="defs1" />
  <g
     id="g5">
    <path
       stroke="none"
       fill="#dadce7"
       d="M 6,58 V 6 h 52 v 52"
       id="path5"
       style="display:inline;fill:#cdced9;fill-opacity:1"
       sodipodi:nodetypes="cccc"
       inkscape:label="in" />
    <path
       stroke="none"
       fill="#36bdf7"
       d="m 62,58 c 0,3 -1,4 -4,4 H 6 C 3,62 2,61 2,58 V 6 C 2,3 3,2 6,2 h 52 c 3,0 4,1 4,4 z M 4,6 v 52 c 0,1.5 0.5,2 2,2 H 27.45 28 58 c 1.5,0 2,-0.5 2,-2 V 6 C 60,4.5 59.5,4 58,4 H 6 C 4.5,4 4,4.5 4,6 Z"
       id="path1"
       style="display:inline;fill:#99bdcc;fill-opacity:1"
       sodipodi:nodetypes="ssssssssssssccsssscs"
       inkscape:label="out2" />
    <path
       stroke="none"
       fill="#1c9fd7"
       d="m 58,4 c 1.5,0 2,0.5 2,2 v 52 c 0,1.5 -0.5,2 -2,2 H 6 C 4.5,60 4,59.5 4,58 V 6 C 4,4.5 4.5,4 6,4 Z M 6,6 V 58 H 58 V 6 H 6"
       id="path2"
       style="display:inline;fill:#7d9aa6;fill-opacity:1"
       sodipodi:nodetypes="sssssssssccccc"
       inkscape:label="out3" />
    <path
       stroke="none"
       fill="#167da8"
       d="M 0,58.25 V 6 C 0,2 2,0 6,0 h 52 c 4,0 6,2 6,6 v 52 c 0,4 -2,6 -6,6 H 6 C 2,64 0,62 0,58.25 M 58,2 H 6 C 3,2 2,3 2,6 v 52 c 0,3 1,4 4,4 h 52 c 3,0 4,-1 4,-4 V 6 C 62,3 61,2 58,2 Z"
       id="path3"
       style="display:inline;fill:#516873;fill-opacity:1"
       sodipodi:nodetypes="cssssssscsssssssss"
       inkscape:label="out1" />
    <path
       stroke="none"
       fill="#ffffff"
       d="M 6,6 H 58 V 58 H 6 V 6 M 57,57 V 7 H 7 v 50 z"
       id="path4"
       inkscape:label="out4"
       sodipodi:nodetypes="cccccccccc" />
  </g>
</svg>
